icons/cloud.svg

<svg xmlns="http://www.w3.org/2000/svg" width="96" height="96"><path d="M32 80c-8.5 0-16.6-3.4-22.6-9.4S0 56.5 0 48c0-8.5 3.4-16.6 9.4-22.6S23.5 16 32 16c12.5 0 23.9 7.3 29.1 18.6C64.5 32.9 68.2 32 72 32c6.4 0 12.5 2.5 17 7s7 10.6 7 17-2.5 12.5-7 17-10.6 7-17 7H32zm0-8c-6.4 0-12.5-2.5-17-7S8 54.4 8 48s2.5-12.5 7-17 10.6-7 17-7c10.8 0 20.4 7.3 23.2 17.8.3 1.3 1.4 2.4 2.7 2.8 1.3.4 2.7.1 3.8-.8C64.5 41.4 68.2 40 72 40c4.2 0 8.3 1.7 11.3 4.7S88 51.8 88 56c0 4.2-1.7 8.3-4.7 11.3S76.2 72 72 72H32z" fill-rule="evenodd" fill="#454545"/></svg>

<?xml version="1.0" standalone="no"?><!-- Generator: Gravit.io --><svg xmlns="http://www.w3.org/2000/svg" xmlns:xlink="http://www.w3.org/1999/xlink" width="96" height="96"><path d=" M 32 80 C 23.5 80 15.4 76.6 9.4 70.6 C 3.4 64.6 0 56.5 0 48 C 0 39.5 3.4 31.4 9.4 25.4 C 15.4 19.4 23.5 16 32 16 C 44.5 16 55.9 23.3 61.1 34.6 C 64.5 32.9 68.2 32 72 32 C 78.4 32 84.5 34.5 89 39 C 93.5 43.5 96 49.6 96 56 C 96 62.400000000000006 93.5 68.5 89 73 C 84.5 77.5 78.4 80 72 80 L 72 80 L 32 80 Z  M 32 72 C 25.6 72 19.5 69.5 15 65 C 10.5 60.5 8 54.4 8 48 C 8 41.6 10.5 35.5 15 31 C 19.5 26.5 25.6 24 32 24 C 42.8 24 52.4 31.299999999999997 55.2 41.8 C 55.5 43.1 56.6 44.2 57.9 44.6 C 59.2 45 60.6 44.7 61.7 43.8 C 64.5 41.4 68.2 40 72 40 C 76.2 40 80.3 41.7 83.3 44.7 C 86.3 47.7 88 51.8 88 56 C 88 60.2 86.3 64.3 83.3 67.3 C 80.3 70.3 76.2 72 72 72 L 72 72 L 32 72 Z " fill-rule="evenodd" fill="#454545"/></svg>
